assets/svg/ficon/pie-chart.svg

<?xml version="1.0" encoding="utf-8"?>
<svg width="1792" height="1792" viewBox="0 0 1792 1792" xmlns="http://www.w3.org/2000/svg"><path d="M768 890l546 546q-106 108-247.5 168t-298.5 60q-209 0-385.5-103t-279.5-279.5-103-385.5 103-385.5 279.5-279.5 385.5-103v762zm187 6h773q0 157-60 298.5t-168 247.5zm709-128h-768v-768q209 0 385.5 103t279.5 279.5 103 385.5z" fill="#60be86"/></svg>

<svg width="1792" height="1792" xmlns="http://www.w3.org/2000/svg"><path d="M768 890l546 546q-106 108-247.5 168T768 1664q-209 0-385.5-103T103 1281.5 0 896t103-385.5T382.5 231 768 128v762zm187 6h773q0 157-60 298.5T1500 1442zm709-128H896V0q209 0 385.5 103T1561 382.5 1664 768z" fill="#60be86"/></svg>
